resources/haticons/SVG/indent-decrease.svg

<!-- Generated by IcoMoon.io -->
<svg version="1.1" xmlns="http://www.w3.org/2000/svg" width="24" height="24" viewBox="0 0 24 24">
<title>indent-decrease</title>
<path d="M0 1.5h24v3h-24zM9 6h15v3h-15zM9 10.5h15v3h-15zM9 15h15v3h-15zM0 19.5h24v3h-24zM6 7.5v9l-6-4.5z"></path>
</svg>

<svg xmlns="http://www.w3.org/2000/svg" width="24" height="24"><path d="M0 1.5h24v3H0zM9 6h15v3H9zm0 4.5h15v3H9zM9 15h15v3H9zm-9 4.5h24v3H0zm6-12v9L0 12z"/></svg>
